X:1
T:Jacob, or Enrico
S:David Barnert, May 2002
H:was Anon038
N:Corrupt version
M:4/4
L:1/8
R:Reel
K:D
A2 | defe d2 A2 | ABAG F2 A2 | d2 ef gfed | e2 e2 e2 A2 |
 defe d2 A2 | ABAG F2 A2 | d2 ef gfed | e2 d2 d2 |]
